X:1
T:Let Every Lamp Be Burning Bright
T:Let Every Lamp Be Burning Bright
T:Franklin Edson Belden
T:Franklin Edson Belden, 1886
T:Public Domain Courtesy of the Cyber Hymnal™
T:Public Domain Courtesy of the Cyber Hymnal™
C:Franklin Edson Belden
Z:Public Domain
Z:Courtesy of the Cyber Hymnal™
%%score ( 1 2 ) ( 3 4 )
L:1/8
Q:1/4=103
M:3/4
K:Eb
V:1 treble 
V:2 treble 
V:3 bass 
V:4 bass 
V:1
 B,2 | [B,E][B,E] [B,E]2 [EG]2 | [EB][EG] [EB]2 (cB) | [EG]3 [B,E] [B,D][B,E] | [EG]2 [DF]2 B,2 | %5
w: 1.~Let|ever- y lamp be|burn- ing bright, The *|dark- est hour is|near- ing; The|
w: 2.~Though|thou- sands calm- ly|slum- ber on, The *|last great mess- age|spurn- ing, We’ll|
w: 3.~His|Word our lamp, His|truth our guide, We *|can- not be mis-|tak- en; Though|
w: 4.~Then|let good works with|faith ap- pear, To *|help the world a-|round us; O-|
 [B,E][B,E] [B,E]2 [EG]2 | [EB][EG] [EB]2 (cB) | [EG]3 E [DF][EG] | [DF]2 !fermata!E2 || %9
w: dark- est hour of|earth’s long night, Be- *|fore the Lord’s ap-|pear- ing.|
w: rest our liv- ing|faith up- on His *|prom- ise of ret-|urn- ing.|
w: dan- gers rise on|ever- y side, We *|shall not be for-|sak- en.|
w: be- dience brings the|bless- ing near When *|faith has firm- ly|bound us.|
"^Refrain" [GB]2 | [Ge][Ge] [Ge]2 [GB]2 | [Ac][Ac] [GB]2 [GB]2 | [Ge][Ge] [Ge]2 [GB]2 | %13
w: ||||
w: Then|trim your lamps, my|breth- ren dear, Then|trim your lamps with|
w: ||||
w: ||||
 [EG]E [DF]2 ([EG][DF]) | E[CE] [CE]2 [EG]2 | [EB][EG] [EB]2 (cB) | [EG]3 E [DF][EG] | [DF]2 E4 |] %18
w: |||||
w: god- ly fear; The *|Mas- ter’s com- ing|draw- eth near, Let *|ever- y lamp be|burn- ing.|
w: |||||
w: |||||
V:2
 B,2 | x6 | x4 E2 | x6 | x4 B,2 | x6 | x4 E2 | x3 E x2 | x2 E2 || x2 | x6 | x6 | x6 | x E x4 | %14
 E x5 | x4 E2 | x3 E x2 | x2 E4 |] %18
V:3
 [E,G,]2 | [E,G,][B,,G,] [E,G,]2 [E,B,]2 | [E,G,][E,B,] [E,G,]2 (A,G,) | [E,B,]3 G, [F,A,][E,G,] | %4
 [B,,B,]2 [B,,B,]2 [D,A,]2 | [E,G,][B,,G,] [E,G,]2 [E,B,]2 | [E,G,][E,B,] [E,G,]2 (A,G,) | %7
 [E,B,]3 [G,B,] B,B, | [B,,A,]2 !fermata![E,G,]2 || [E,E]2 | [E,B,][E,B,] [E,B,]2 [E,E]2 | %11
 [A,,E][C,E] [E,E]2 [E,E]2 | [E,B,][E,B,] [E,B,]2 [E,E]2 | [E,B,][G,B,] B,2 (B,A,) | %14
 [C,G,][C,G,] [C,G,]2 [B,,B,]2 | [E,G,][E,B,] [E,G,]2 (A,G,) | [E,B,]3 [G,B,] B,B, | %17
 [B,,A,]2 [E,G,]4 |] %18
V:4
 x2 | x6 | x4 E,2 | x3 G, x2 | x6 | x6 | x4 E,2 | x4 B,B, | x4 || x2 | x6 | x6 | x6 | x2 B,2 B,,2 | %14
 x6 | x4 E,2 | x4 B,B, | x6 |] %18

